assets/icons/email.svg

<svg width="25" height="25" viewBox="0 0 25 25" fill="none" xmlns="http://www.w3.org/2000/svg">
<g id="email">
<path id="iconDefault" fill-rule="evenodd" clip-rule="evenodd" d="M6.14935 0.759766C5.74486 0.759766 5.36789 0.894426 5.08997 1.16792C4.81134 1.44213 4.67188 1.81705 4.67188 2.22168V9.01119L0.971054 11.6021C0.837407 11.6957 0.757812 11.8486 0.757812 12.0117V22.2744C0.757812 23.3323 1.66564 24.2412 2.72402 24.2412H22.2735C23.3318 24.2412 24.2397 23.3323 24.2397 22.2744V12.1094C24.2397 12.0931 24.2389 12.0769 24.2373 12.0609C24.2486 11.9496 24.2228 11.8338 24.1558 11.7334C24.063 11.5941 23.9123 11.5164 23.7568 11.511L20.334 9.11469V2.22168C20.334 1.81705 20.1945 1.44213 19.9159 1.16792C19.6379 0.894426 19.261 0.759766 18.8565 0.759766H6.14935ZM2.14411 12.0016L4.67188 10.2319V13.6865L2.14411 12.0016ZM7.39996 15.5049L5.67188 14.353V2.22168C5.67188 2.04918 5.72791 1.94315 5.79139 1.88068C5.85559 1.8175 5.96735 1.75977 6.14935 1.75977H18.8565C19.0385 1.75977 19.1502 1.8175 19.2144 1.88068C19.2779 1.94315 19.334 2.04918 19.334 2.22168V9.30682C19.3283 9.35006 19.3284 9.39369 19.334 9.43656V14.3473L17.5976 15.5049C17.3679 15.6581 17.3058 15.9685 17.459 16.1983C17.6122 16.428 17.9226 16.4901 18.1524 16.3369L23.2397 12.9451V22.2744C23.2397 22.7805 22.779 23.2412 22.2735 23.2412H2.72402C2.21844 23.2412 1.75781 22.7805 1.75781 22.2744V12.9459L6.84533 16.3369C7.07511 16.4901 7.38554 16.428 7.53869 16.1982C7.69185 15.9684 7.62974 15.658 7.39996 15.5049ZM20.334 10.3354L22.7814 12.0488L20.334 13.6805V10.3354ZM8.7647 16.508C8.85335 16.4371 8.9635 16.3984 9.07702 16.3984H15.9193C16.0329 16.3984 16.143 16.4371 16.2317 16.508L21.1191 20.4182C21.3347 20.5907 21.3696 20.9053 21.1971 21.121C21.0246 21.3366 20.71 21.3715 20.4943 21.199L15.7439 17.3984H9.2524L5.87092 20.1033C5.65528 20.2758 5.34064 20.2409 5.16814 20.0252C4.99565 19.8096 5.03063 19.4949 5.24627 19.3224L8.7647 16.508ZM4.16797 21.3311C4.44411 21.3311 4.66797 21.1072 4.66797 20.8311C4.66797 20.5549 4.44411 20.3311 4.16797 20.3311C3.89183 20.3311 3.66797 20.5549 3.66797 20.8311C3.66797 21.1072 3.89183 21.3311 4.16797 21.3311ZM14.625 8.167C14.625 8.185 14.6248 8.20294 14.6243 8.22083V9.03341C14.6243 9.48906 15.0232 9.83342 15.4243 9.83342C15.88 9.83342 16.2243 9.43458 16.2243 9.03341V8.38341C16.2243 8.37584 16.2245 8.36827 16.2249 8.36071C16.3209 6.24732 14.6866 4.42843 12.585 4.3329C10.4836 4.23738 8.66601 5.96295 8.66601 8.05841C8.66601 8.06718 8.66578 8.07594 8.66532 8.08469C8.57003 9.89523 9.80834 11.5195 11.6273 11.9025L11.6317 11.9034C11.6418 11.9056 11.6518 11.9081 11.6617 11.911C12.2823 12.0883 12.8114 12.0126 13.5555 11.906L13.6203 11.8968C13.8937 11.8577 14.1469 12.0477 14.186 12.321C14.225 12.5944 14.0351 12.8477 13.7617 12.8867L13.6415 12.904C12.9459 13.0046 12.2276 13.1084 11.4042 12.8774C9.12017 12.388 7.55161 10.3403 7.66603 8.04526C7.67356 5.38007 9.96949 3.21298 12.6304 3.33393C15.2915 3.45489 17.3384 5.74611 17.2243 8.39446V9.03341C17.2243 9.93225 16.4854 10.8334 15.4243 10.8334C14.776 10.8334 14.1265 10.449 13.8148 9.83652C13.4531 10.1218 12.9964 10.292 12.5 10.292C11.3264 10.292 10.375 9.3406 10.375 8.167C10.375 6.99339 11.3264 6.042 12.5 6.042C13.6736 6.042 14.625 6.99339 14.625 8.167ZM11.375 8.167C11.375 7.54568 11.8787 7.042 12.5 7.042C13.114 7.042 13.6131 7.53387 13.6248 8.14507C13.6245 8.15226 13.6243 8.15949 13.6243 8.16675V8.20615C13.6037 8.80934 13.1082 9.292 12.5 9.292C11.8787 9.292 11.375 8.78832 11.375 8.167Z" fill="#18303F"/>
</g>
</svg>

<svg width="25" height="25" viewBox="0 0 25 25" fill="none"><g id="email"><path id="iconDefault" fill-rule="evenodd" clip-rule="evenodd" d="M6.15.76c-.405 0-.782.134-1.06.408-.279.274-.418.65-.418 1.054v6.79l-3.7 2.59a.5.5 0 0 0-.214.41v10.262c0 1.058.908 1.967 1.966 1.967h19.55c1.058 0 1.966-.909 1.966-1.967V12.11l-.003-.048a.498.498 0 0 0-.48-.55l-3.423-2.396V2.222c0-.405-.14-.78-.418-1.054-.278-.274-.655-.408-1.06-.408H6.15ZM2.143 12.002l2.528-1.77v3.455l-2.528-1.685ZM7.4 15.505l-1.728-1.152V2.222c0-.173.056-.279.12-.341.064-.064.175-.121.357-.121h12.707c.182 0 .294.057.358.12s.12.17.12.342v7.085a.499.499 0 0 0 0 .13v4.91l-1.736 1.158a.5.5 0 0 0 .554.832l5.088-3.392v9.33c0 .506-.461.966-.966.966H2.723c-.506 0-.966-.46-.966-.967v-9.328l5.087 3.39a.5.5 0 1 0 .555-.831Zm12.934-5.17 2.447 1.714-2.447 1.632v-3.346Zm-11.57 6.173a.5.5 0 0 1 .313-.11h6.842a.5.5 0 0 1 .313.11l4.887 3.91a.5.5 0 0 1-.625.781l-4.75-3.8H9.252l-3.381 2.704a.5.5 0 1 1-.625-.78l3.519-2.815Zm-4.596 4.823a.5.5 0 1 0 0-1 .5.5 0 0 0 0 1ZM14.625 8.167v.866c0 .456.398.8.8.8.455 0 .8-.398.8-.8v-.65a.43.43 0 0 1 0-.022c.096-2.114-1.538-3.933-3.64-4.028-2.101-.096-3.919 1.63-3.919 3.725a3.707 3.707 0 0 0 2.961 3.844l.005.001.03.008c.62.177 1.15.102 1.893-.005l.065-.01a.5.5 0 1 1 .142.99l-.12.018c-.696.1-1.414.204-2.238-.027a4.707 4.707 0 0 1-3.738-4.832c.008-2.665 2.303-4.832 4.964-4.711 2.661.12 4.708 2.412 4.594 5.06v.64c0 .898-.739 1.8-1.8 1.8a1.842 1.842 0 0 1-1.61-.997 2.125 2.125 0 1 1 .81-1.67Zm-3.25 0a1.125 1.125 0 0 1 2.25 0v.04a1.125 1.125 0 0 1-2.25-.04Z" fill="#18303F"/></g></svg>
